X:501
T:Repeal of the Union, The
T:Hen and Her Brood, The
R:reel
D:Tommy Keane & Jacqueline McCarthy: The Wind in the Reeds
D:Fintan Vallely: Traditional Irish Flute Music
Z:id:hn-reel-674 (minus the ornaments)
M:C|
K:Dmix
ADED A3G|E2cE dEcB|ADED A2AG|E2cE EDD2:|
Adde fdec|ABcA dBcB|Adde fdcA|GEcE EDD2|
Adde fdec|ABcd egg2|afge fdcA|GEcE EDD2||
